X: 1
T:Bourrée
M:2/4
L:1/8
Q:1/4=120
K:G
B|d2AA|c2GG|B2/3d/3 cB|A/2G/2A/2B/2 A/2c/2B/2c/2|d2AA|c2GG|B2/3d/3 cB|A3|
B|d2AA|c2GG|B2/3d/3 cB|A/2G/2A/2B/2 A/2c/2B/2c/2|d2AA|c2GG|B2/3d/3 cB|A3|
F/2G/2|AA AA|A2 G/2F/2G/2A/2|Bd Be|^c2/3B/3 Ad|AF GA|B2 EF/2G/2|AG/2F/2E2|D3|
F/2G/2|AA AA|A2 G/2F/2G/2A/2|Bd Be|^c2/3B/3 Ad|AF GA|B2 EF/2G/2|AG/2F/2E2|D3|]